X: 28541
T: Munster, The
R: jig
M: 6/8
K: Gmajor
~G3 AGA|Bde gdB|GAB cBA|BGE EDE|
~G3 AGA|Bde gdB|cBA BdB|AGG G2D|
~G3 AGA|Bde gdB|GAB cBA|BGE GED|
~G3 AGA|Bde gdB|cBA BdB|AGG GBd||
~g3 efg|fag fed|gfg efg|~a2f def|
gfg agf|gfg edB|cBA BdB|AGG GBd|
[g3d3] efg|(3fga g fed|gfg efg|~a2f def|
gfg agf|gfg edB|cBA BdB|AGG GDE||

